cellusarquivos/redes/facebook.svg

<svg width="32" height="32" viewBox="0 0 32 32" fill="none" xmlns="http://www.w3.org/2000/svg">
<g clip-path="url(#clip0_18_73)">
<path d="M32.0001 16.098C32.0001 7.20599 24.8361 -0.00201416 16.0001 -0.00201416C7.16009 -1.41601e-05 -0.00390625 7.20599 -0.00390625 16.1C-0.00390625 24.134 5.84809 30.794 13.4961 32.002V20.752H9.43609V16.1H13.5001V12.55C13.5001 8.51599 15.8901 6.28799 19.5441 6.28799C21.2961 6.28799 23.1261 6.60199 23.1261 6.60199V10.562H21.1081C19.1221 10.562 18.5021 11.804 18.5021 13.078V16.098H22.9381L22.2301 20.75H18.5001V32C26.1481 30.792 32.0001 24.132 32.0001 16.098Z" fill="url(#paint0_linear_18_73)"/>
</g>
<defs>
<linearGradient id="paint0_linear_18_73" x1="15.9981" y1="-0.00201416" x2="15.9981" y2="32.002" gradientUnits="userSpaceOnUse">
<stop stop-color="#C4141E"/>
<stop offset="1" stop-color="#AA0C15"/>
</linearGradient>
<clipPath id="clip0_18_73">
<rect width="32" height="32" fill="white"/>
</clipPath>
</defs>
</svg>

<svg xmlns="http://www.w3.org/2000/svg" width="32" height="32" fill="none"><g clip-path="url(#a)"><path fill="url(#b)" d="M32 16.098c0-8.892-7.164-16.1-16-16.1C7.16 0-.004 7.206-.004 16.1c0 8.034 5.852 14.694 13.5 15.902v-11.25h-4.06V16.1H13.5v-3.55c0-4.034 2.39-6.262 6.044-6.262 1.752 0 3.582.314 3.582.314v3.96h-2.018c-1.986 0-2.606 1.242-2.606 2.516v3.02h4.436l-.708 4.652H18.5V32C26.148 30.792 32 24.132 32 16.098Z"/></g><defs><linearGradient id="b" x1="15.998" x2="15.998" y1="-.002" y2="32.002" gradientUnits="userSpaceOnUse"><stop stop-color="#C4141E"/><stop offset="1" stop-color="#AA0C15"/></linearGradient><clipPath id="a"><path fill="#fff" d="M0 0h32v32H0z"/></clipPath></defs></svg>
